X:6015
T:Swedish Barn Dance (1)
M:4/4
O:Sweden
O:England
R:Hornpipe
R:Schottische
Z:Richard Robinson 
%%TUNEURL: http://www.leeds.ac.uk/music/Info/RRTuneBk/gettune/00000732.html
%%ID:00000732
K:G
D| G>AB>c d>gf>a | g2B2 d2e>d | \
c>eA>B c2d>c | B>dG>A B>DE>F |\
G>AB>c d>gf>a | g2B2 d2c>B | c>eA>B c>AF>G \
|1 (3ABA G>F G3 :|2 (3ABA G>F G>AB>c |:\
d2b2c2a2 | B>gg>f g>dB>G |\
F>GA>B c>AF>A | G>AB>c d>Bc>^c |\
d2b2c2a2 | B>gg>f g>dB>G | F>GA>B c>AF>G \
|1 (3ABA G>F G>AB>c :|2 (3ABA G>F G3|]
